!!!!SEGMENT: pl-wtm--r-2132_wysocki-kasper-napoleon--marsz.krn
!!!cenid: 18xx:4363
!!!COM: Wysocki, Kasper Napoleon
!!!COM-rismID: pe41024789
!!!CDT: 1810/12/06-1850/09/21
!!!CNT: Polish
!!!OTL: Marsz
!!!PDT:
!!!AGN:
!!!SMS-siglum: PL-Wtm
!!!SMS-shelfmark: R 2132
!!!SMS-shelfwork: W
!!!SMS-variant:
!!!SMS-altvar:
!!!NIFC-rismSourceID: 1001139249
!!!NIFC-rismChildID: 1001139249
!!!NIFC-islandoraID: pl-wtm:29913
!!!URL-pdf-islandora: https://repozytorium.nifc.pl/islandora/object/pl-wtm:29913/datastream/PDF/view
!!!URL-scan: https://polish.musicsources.pl/pl/lokalizacje/galeria/rekopisy/6562/2 @EN{Scan on Polish Music Sources Website} @PL{Skany w portalu Dziedzictwo Muzyki Polskiej w otwartym dostępie}
!!!ONB-nifc:
!!!AIN: 2 piano
!!!key: D
**kern	**kern	**dynam
*part2	*part1	*part1
*staff2	*staff1	*
*>[A,B,B1,B,B2,C,C,D,A,B,B2]	*>[A,B,B1,B,B2,C,C,D,A,B,B2]	*>[A,B,B1,B,B2,C,C,D,A,B,B2]
*>A	*>A	*>A
*I"fortepian	*I"fortepian	*
*Ipiano	*Ipiano	*
*ICklav	*ICklav	*
*clefF4	*clefG2	*
*k[f#c#]	*k[f#c#]	*
*D:	*D:	*
*M4/4	*M4/4	*
*met(c)	*met(c)	*
16A\LL	16a/LL	f
16A\J	16a/J	.
8A\	8a/	.
8A\J	8a/J	.
=1	=1	=1
*	*^	*
2D: 2AA: 2DD:/	(<4.ff#:/	2a: 2f#^:\	.
.	16ee/LL	.	.
.	16dd/JJ)	.	.
4d 4A 4D\	8.cc#/L	4a 4f#\	.
.	16dd/K	.	.
4d 4A 4D\	8.ee/	4a 4f#\	.
.	16ff#/Jk	.	.
=2	=2	=2	=2
[2c#: [2A: [2E:\	(<4.aa:/	2cc#: 2a: 2g:\	sf
.	16gg/LL	.	.
.	16ee/JJ	.	.
8c#] 8A] 8E\]	8cc#/)	2ryy	.
16r	16r	.	.
16A\KL	16a/KL	.	.
8.A\	8.a/	.	.
16A\Jk	16a/Jk	.	.
=3	=3	=3	=3
2AA: 2EE: 2AAA:/	(<4.gg:/	2cc#: 2a: 2g^:\	.
.	16aa/LL	.	.
.	16gg/JJ)	.	.
4c# 4E 4AA\	8.ff#/L	4cc# 4a 4g\	<
.	16ee/K	.	.
4c# 4E 4AA\	8.dd#X/	4a 4g\	.
.	16ee/Jk	.	[[
!!LO:LB:g=original
=4	=4	=4	=4
[2d: [2A: [2F#: [2D:\	(<4.bb:/	2ff#: 2dd: [2a:\	sf
.	16aa/LL	.	.
.	16ff#/JJ	.	.
8d] 8A] 8F#] 8D\]	8dd/)	4a\]	.
8r	8r	.	.
4d 4A 4F# 4D\	8.dddL 8.dd\	4ryy	p
.	16ccc#Jk 16cc#\	.	.
*	*v	*v	*
=5	=5	=5
4d 4B 4G 4D\	8.bbL 8.b\	.
.	16dddK 16dd\	.
4d 4B 4G 4D\	8.ccc# 8.cc#\	.
.	16bbJk 16b\	.
4d 4A 4F# 4D\	4aa 4a\	.
4A 4F# 4D\	8.ggL 8.g\	.
.	16ff#Jk 16f#\	.
=6	=6	=6
4A#X 4F# 4C#\	8.eeL 8.e\	.
.	16ggK 16g\	.
4A# 4C# 4FF#\	8.ff# 8.f#\	.
.	16eeJk 16e\	.
8B 8F# 8BB\	8dd 8d\	.
8r	16r	.
.	16dddKL 16dd\	.
(4G#X [4E 4D (4BB/	8.ccc# 8.cc#\	.
.	16bbJk 16b\	.
!!LO:LB:g=original
=7	=7	=7
8A) 8E] 8C#/)	8aa 8a\	.
8r	16r	.
*	*8va	*
.	16fff#\KL	>
(4cn 4A 4F# 4D#X\	8.ggg#X\	.
.	16aaa\Jk	.
8c#X 8A 8E\)	8.eee\L	.
8r	.	.
.	16ccc#\K	.
4d 4B 4G#X 4E\	8.ddd\	]
.	16bb\Jk	.
*	*X8va	*
=8	=8	=8
4A 4AA/	8aa 8ee 8cc# 8a\	mf
.	8cc#L 8a 8e/	.
8.EL 8.EE/	8cc# 8a 8e/	.
.	8cc#J 8a 8e/	.
16EJk 16EE/	.	.
*	*tremolo	*
4c# 4C#\	8cc#L 8a 8e/	.
.	8cc# 8a 8e/	.
4A 4AA\	8cc# 8a 8e/	.
.	8cc#J 8a 8e/	.
*	*Xtremolo	*
=9	=9	=9
*^	*^	*
*	*	*ped	*	*
8r	2D: 2AA: 2DD:/	2fffn: 2aa: 2ffn:\	8r	.
8AL 8D\	.	.	8aL 8fn 8d/	p
8A 8D\	.	.	8a 8f 8d/	.
*	*	*Xped	*	*
8AJ 8D\	.	.	8aJ 8f 8d/	.
*	*	*ped	*	*
8r	2E: 2BB: 2EE:/	2eee 2ddd 2gg#X 2ee/	8r	.
8BL 8E\	.	.	8g#XL 8e 8d/	p
8B 8E\	.	.	8g# 8e 8d/	.
*	*	*Xped	*	*
8BJ 8E\	.	.	8g#J 8e 8d/	.
*v	*v	*	*	*
!!LO:LB:g=original
=10	=10	=10	=10
4A 4AA\	4aa 4a\	8r	f
.	.	8ee 8cc#\	.
8.EL 8.EE/	8.eeL 8.e/	8r	.
.	.	8cc# 8a\	.
16EJk 16EE/	16eeJk 16e/	.	.
4c# 4C#\	8r	4ccc# 4cc#\	.
.	8aa 8ee/	.	.
4A 4AA\	8r	4aa 4cc# 4a\	.
.	8ee 8cc#/	.	.
=11	=11	=11	=11
*^	*	*	*
*	*	*ped	*	*
8r	2D: 2AA: 2DD:/	2fffn: 2aa: 2ffn:\	8r	.
8AL 8D\	.	.	8aL 8fn 8d/	p
8A 8D\	.	.	8a 8f 8d/	.
*	*	*Xped	*	*
8AJ 8D\	.	.	8aJ 8f 8d/	.
*	*	*ped	*	*
8r	2E: 2BB: 2EE:/	2eee: 2ddd: 2gg: 2ee:/	8r	.
8BL 8E\	.	.	8g#XL 8e 8d/	p
8B 8E\	.	.	8g# 8e 8d/	.
*	*	*Xped	*	*
8BJ 8E\	.	.	8g#J 8e 8d/	.
*v	*v	*	*	*
*	*v	*v	*
=12	=12	=12
4A 4E 4AA/	4aa 4ee 4cc# 4a\	.
8.EL 8.BB 8.EE/	8.eeeL 8.gg#X 8.ee 8.dd\	>
16EJk 16BB 16EE/	16eeeJk 16gg# 16ee 16dd\	]
4A 4E 4AA/	4aa 4ee 4cc#\	.
8.EL 8.BB 8.EE/	8.eeeL 8.gg#X 8.ee 8.dd\	>
16EJk 16BB 16EE/	16eeeJk 16gg# 16ee 16dd\	]
!!LO:LB:g=original
=13	=13	=13
8A 8E 8AA\	8aa 8ee 8cc#\	.
8r	8r	.
8.AAL 8.EE 8.AAA/	8.aaL 8.ee 8.cc#\	.
16AAJk 16EE 16AAA/	16aaJk 16ee 16cc#\	.
8AA 8EE 8AAA/	8aa 8ee 8cc#\	.
=:|!|:	=:|!|:	=:|!|:
*>B	*>B	*>B
!	!LO:TX:b:i:t=dolce	!
!	!LO:TUP:b:problem:klamra łukowa	!
8r	24a/LL	.
.	24b/	.
.	24a/J	.
4r	8g#X/	.
.	8a/J	.
=14	=14	=14
*	*^	*
4AA 4AAA/	(2dd/	8r	.
.	.	8aL 8g 8e\	.
8C#L 8CC#/	.	8a 8g 8e\	.
8EJ 8EE/	.	8aJ 8g 8e\	.
8A 8AA/	8cc#/)	8a 8g 8e\	.
!	!LO:TUP:b:problem:klamra łukowa	!	!
8r	24g/LL	8c#L 8A\	.
.	24a/	.	.
.	24g/J	.	.
4AA/	8f#/	8c# 8A 8F#\	.
.	8g/J	8c#J 8A 8F#\	.
!!LO:LB:g=original
=15	=15	=15	=15
4F# 4DD/	4b/	8dL 8A\	.
.	.	8d 8A\	.
8.DL 8.FF#/	8.a/L	8d 8A\	.
.	.	8dJ 8A\	.
16AA/Jk	16f#/Jk	.	.
8D 8DD/	8d/	8A 8F#\	.
!	!LO:TUP:b:problem:klamra łukowa	!	!
8r	24a/LL	8r	.
.	24b/	.	.
.	24a/J	.	.
4r	8g#X/	4r	.
.	8a/J	.	.
=16	=16	=16	=16
4AA 4AAA/	(2dd/	8r	.
.	.	8aL 8gn 8e\	.
8C#L 8CC#/	.	8a 8g 8e\	.
8EJ 8EE/	.	8aJ 8g 8e\	.
8A 8AA/	8cc#/)	8a 8g 8e\	.
!	!LO:TUP:b:problem:klamra łukowa	!	!
8r	24g/LL	8c#L 8A\	.
.	24a/	.	.
.	24g/J	.	.
4AA/	8f#/	8c# 8A 8F#\	.
.	8g/J	8c#J 8A 8F#\	.
=17	=17	=17	=17
4F# 4DD/	4b/	8dL 8A\	.
.	.	8d 8A\	.
8.DL 8.FF#/	8.a/L	8d 8A\	.
.	.	8dJ 8A\	.
16AA/Jk	16f#/Jk	.	.
8D 8DD/	8d/	8A 8F#\	.
!	!LO:TUP:b:problem:klamra łukowa	!	!
8r	24a/LL	8r	.
.	24b/	.	.
.	24a/J	.	.
4r	8g#X/	4r	.
.	8a/J	.	.
!!LO:PB:g=original
=18	=18	=18	=18
8FF#/	4.ff#/	8r	p
8r	.	8f# 8en\	.
8A#X 8F#\	.	8r	.
8r	8cc#/	8f# 8e\	.
8FF#/	8.cc#/L	8r	.
8r	.	8f# 8e\	.
.	32dd/LL	.	.
.	32cc#/JJ	.	.
8A# 8F#\	8b/	8r	.
8r	8cc#/J	8f# 8e\	.
=19	=19	=19	=19
8BB/	4dd/	8r	.
8r	.	8f# 8d\	.
8B 8F#\	8b/	8r	.
8r	8r	8f# 8d\	.
8BB/	8r	8r	.
8r	8b/L	8f# 8d\	.
.	16qqcc#/LL	.	.
.	16qqb/JJ	.	.
8B 8F#\	8a#X/	8r	.
8r	8b/J	8f# 8d\	.
=20	=20	=20	=20
8GG/	(4.dd/	8r	.
8r	.	8e#X 8d\	.
8B 8G\	.	8r	.
8r	8b/)	8e# 8d\	.
8GG/	(4.dd/	8r	.
8r	.	8e# 8d\	.
8G\	.	8r	.
8r	8e#/)	8d 8B\	.
!!LO:LB:g=original
=21	=21	=21	=21
!	!	!	!LO:DY:a
8F# 8C# 8FF#\	8f#/	8A#X\	sf
16F#\LL	16f#/LL	8ryy	.
16F#\JJ	16f#/JJ	.	.
8F#\L	8f#/L	4ryy	.
8F#\J	8f#/J	.	.
*tremolo	*tremolo	*	*
8F#\L	8f#/L	2ryy	.
8F#\	8f#/	.	.
8F#\	8f#/	.	.
8F#\J	8f#/J	.	.
*Xtremolo	*Xtremolo	*	*
*	*v	*v	*
=22	=22	=22
4AA 4AAA/	4.g 4.en/	.
4A'\	.	.
.	16r	.
.	16f# 16d/	.
4AA 4AAA/	8eL 8c#/	.
.	16r	.
.	16f#K 16d/	.
4A'\	8g 8e/	.
.	16r	.
.	16g#XJk 16e#X/	.
=23	=23	=23
4D 4DD/	8g#X 8e#X/	.
.	8r	.
4A'\	4.a 4.f#/	.
4D 4DD/	.	.
.	8ddL 8f#/	.
.	32qqeeLLL 32qqgn/	.
.	32qqddJJJ 32qqf#/	.
4A'\	8cc# 8e#/	.
.	8ddJ 8f#/	.
!!LO:LB:g=original
=24	=24	=24
4AA 4AAA/	4.ee: 4.cc#: 4.g:/	sf
4A'\	.	.
.	16r	.
.	16dd 16b/	.
4AA 4AAA/	8cc#L 8a/	.
.	16r	.
.	16bK 16g/	.
4A'\	8a 8f#/	.
.	16r	.
.	16gJk 16e/	.
=25	=25	=25
4D 4DD/	8e#X 8c#/	.
.	8r	.
4A'\	4.f# 4.d/	.
4D 4DD/	.	.
.	8ff#L 8dd 8f#\	f
.	16qqggLL 16qqee 16qqg/	.
.	16qqff#JJ 16qqdd 16qqf#/	.
4A'\	8ee#X 8cc# 8e#X\	.
.	8ff#J 8dd 8f#\	.
=26	=26	=26
4AA 4AAA/	4.gg 4.ee 4.ccn 4.g\	.
4A 4AA'\	.	.
.	16r	.
.	16ff# 16dd 16f#\	.
4AA 4AAA/	8eeL 8cc 8e\	.
.	16r	.
.	16ff#K 16dd 16f#\	.
4A 4AA'\	8gg 8ee 8g\	.
.	16r	.
.	16gg#XJk 16ee#X 16g#X\	.
!!LO:LB:g=original
=27	=27	=27
4D 4DD/	8gg#X 8ee#X 8g#X\	.
.	8r	.
!	!	!LO:DY:t=cresc:ext=ud
4d 4A 4D\	4.aa 4.ff# 4.a\	<
4D 4DD/	.	.
.	8dddL 8ff# 8dd\	.
.	16qqeeeLL 16qqggn 16qqeen/	.
.	16qqdddJJ 16qqff# 16qqdd/	.
4d 4A 4D\	8ccc# 8ee 8cc#\	.
.	8dddJ 8ff# 8dd\	[[
=28	=28	=28
4BB-X 4BBB-X/	4.fffn 4.gg#X 4.ffn\	ff >
4g#X 4fn 4d 4B-X\	.	]
.	8ddd 8gg# 8ff 8dd\	.
4BB- 4BBB-/	4.fff 4.gg# 4.ff\	>
4g# 4f 4d 4B-\	.	.
.	8ddd 8gg# 8ff 8dd\	]
=29	=29	=29
*	*8va	*
8AA 8EE 8CC# 8AAA/	8aaa 8eee 8ccc# 8aa\	.
*	*X8va	*
!	!LO:TX:a:t=loco	!
16A\LL	16a/LL	.
16A\J	16a/JJ	.
8A\	8a/L	.
8A\J	8a/J	.
*tremolo	*tremolo	*
8A\L	8a/L	.
8A\	8a/	.
8A\	8a/	.
8A\J	8a/J	.
*Xtremolo	*Xtremolo	*
!!LO:LB:g=original
=30	=30	=30
*	*^	*
!	!	!	!LO:DY:rj
4D 4DD/	(<4..ff#/	2a 2f#\	ff
8.F#L 8.FF#/	.	.	.
16AJk 16AA/	32ee/LLL	.	.
.	32dd/JJJ	.	.
4d 4D\	8.cc#/L)	4a 4f#\	.
.	16dd/K	.	.
4D 4AA 4DD/	8.ee/	4a 4f#\	.
.	16ff#/Jk	.	.
=31	=31	=31	=31
*tremolo	*	*	*
32C#LLL 32AA 32EE/	(<4..aa/	2cc# 2a 2g\	.
32E/	.	.	.
32C# 32AA 32EE/	.	.	.
32E/	.	.	.
32C# 32AA 32EE/	.	.	.
32E/	.	.	.
32C# 32AA 32EE/	.	.	.
32E/	.	.	.
32C# 32AA 32EE/	.	.	.
32E/	.	.	.
32C# 32AA 32EE/	.	.	.
32E/	.	.	.
32C# 32AA 32EE/	.	.	.
32E/	.	.	.
32C# 32AA 32EE/	32gg/LLL	.	.
[32E/JJJ	32ee/JJJ	.	.
*Xtremolo	*	*	*
!LO:TX:t=P:problem:złe wyświetlanie z powodu ligatury	!	!	!
8E] 8C# 8AA 8EE/	8cc#/)	8a 8g\	.
16r	16r	4.ryy	.
16A\KL	16a/KL	.	.
8.A\	8.a/	.	.
16A\Jk	16a/Jk	.	.
=32	=32	=32	=32
4AA 4AAA/	(<4..gg/	2cc# 2a 2g\	.
8.C#L 8.CC#/	.	.	.
16EJk 16EE/	32aa/LLL	.	.
.	32gg/JJJ	.	.
4A 4AA/	8.ff#/L)	4cc# 4a 4g\	.
.	16ee/K	.	.
4AA 4AAA/	8.dd#X/	4cc# 4a 4g\	.
.	16ee/Jk	.	.
!!LO:LB:g=original
=33	=33	=33	=33
*tremolo	*	*	*
32AALL 32FF# 32DD/	(<4..bb/	2ff# 2ddn [2a\	sf
32D/	.	.	.
32AA 32FF# 32DD/	.	.	.
32D/	.	.	.
32AA 32FF# 32DD/	.	.	.
32D/	.	.	.
32AA 32FF# 32DD/	.	.	.
32D/	.	.	.
32AA 32FF# 32DD/	.	.	.
32D/	.	.	.
32AA 32FF# 32DD/	.	.	.
32D/	.	.	.
32AA 32FF# 32DD/	.	.	.
32D/	.	.	.
32AA 32FF# [32DD/	32aa/LLL	.	.
[32D/JJ	32ff#/JJJ	.	.
*Xtremolo	*	*	*
!LO:TX:t=P:problem:złe wyświetlanie z powodu ligatur	!	!	!
8D] 8AA 8FF# 8DD]/	8dd/)	8a\]	.
8r	8r	4.ryy	.
4d 4A 4F# 4D\	8.dddL 8.aa 8.ff# 8.dd\	.	.
.	16ccc#Jk 16cc#\	.	.
*	*v	*v	*
=34	=34	=34
4d 4B 4G 4D\	8.bbL 8.gg 8.dd 8.b\	.
.	16dddK 16dd\	.
4d 4B 4G 4D\	8.ccc# 8.gg 8.cc#\	.
.	16bbJk 16b\	.
4d 4A 4F# 4D\	4aa 4ff# 4dd 4a\	.
4B 4F# 4D 4BB\	8.dddL 8.ff# 8.dd\	f
.	16eeeJk 16ee\	.
!!LO:PB:g=original
=35	=35	=35
4A#X 4F# 4C#X 4AA#X\	8.fff#L 8.ccc# 8.ff#\	.
.	16ccc#K 16cc#\	.
4F# 4C# 4FF#/	8.fff# 8.aa#X 8.ff#\	.
.	16eeeJk 16ee\	.
4B 4F# 4BB\	8ddd 8ff# 8dd\	.
.	16r	.
.	16dddKL 16ff# 16dd\	>
4B 4Fn 4D 4GG#X\	8.ccc# 8.ee#X 8.cc#\	.
.	16bbJk 16ee# 16b\	]
=36	=36	=36
4AA 4FF# 4DD 4AAA/	8bbL 8ff# 8dd 8b\	>
.	8aa 8ff# 8dd 8a\	.
4A 4F# 4D 4AA\	8ccc# 8aa 8ff# 8cc#\	.
.	8dddJ 8aa 8ff# 8dd\	]
4AA 4EE 4CC# 4AAA/	8fff#L 8ccc# 8aa 8gg\	]>
.	8eee 8ccc# 8aa 8gg\	.
4A 4G 4E 4AA\	8bb 8gg 8ee 8b\	.
.	8ccc#J 8gg 8ee 8cc#\	]
=37	=37	=37
4D 4DD/	8ddd 8aa 8ff# 8dd\	f
.	8aL 8f# 8d 8A/	.
8.AAL 8.AAA/	8a 8f# 8d 8A/	.
.	8aJ 8f# 8d 8A/	.
16AAJk 16AAA/	.	.
*	*tremolo	*
4F# 4FF#\	8aL 8f# 8d 8A/	.
.	8a 8f# 8d 8A/	.
4D 4DD/	8a 8f# 8d 8A/	.
.	8aJ 8f# 8d 8A/	.
*	*Xtremolo	*
!!LO:LB:g=original
=38	=38	=38
*^	*^	*
*	*	*ped	*	*
!	!	!	!	!LO:DY:a=2
8r	2GG: 2DD: 2BBB:/	2bb-X: 2gg: 2dd: 2b-X:\	8r	sf
8B-XL 8G\	.	.	8gL 8d/	p
8B- 8G\	.	.	8g 8d/	.
*	*	*Xped	*	*
8B-J 8G\	.	.	8gJ 8d/	.
*	*	*ped	*	*
!	!	!	!	!LO:DY:a=2
8r	2AA: 2EE: 2AAA:/	2aa: 2gg: 2cc#: 2a:\	8r	sf
8A\L	.	.	8aL 8g 8e 8c#/	p
8A\	.	.	8a 8g 8e 8c#/	.
*	*	*Xped	*	*
8A\J	.	.	8aJ 8g 8e 8c#/	.
=39	=39	=39	=39	=39
4ryy	8dL 8D\	4ryy	8dddL 8dd\	f
.	8A 8F#\	.	8aa 8ff#\	.
16	8.A 8.AA\	16ryy	8.aa 8.a\	.
!LO:N:vis=8	!	!LO:N:vis=8	!	!
16r	.	16r	.	.
!LO:N:vis=8	!	!LO:N:vis=8	!	!
16F# 16D/	.	16ff# 16dd\	.	.
16ryy	16AJk 16AA\	16ryy	16aaJk 16a\	.
8f#L 8F#\	2ryy	8fff#L 8ff#\	2ryy	.
8d 8A\	.	8ddd 8aa\	.	.
8d 8D\	.	8ddd 8dd\	.	.
8AJ 8F#\	.	8aaJ 8ff#\	.	.
*v	*v	*	*	*
!!LO:LB:g=original
=40	=40	=40	=40
*	*8va	*	*
*	*ped	*	*
2GG: 2BBB: 2GGG:/	2bbb-X 2ggg 2ddd 2bb-X\	8r	.
*	*X8va	*	*
!	!LO:TX:a:i:t=loco	!	!
.	.	8ddL 8b- 8g/	p
.	.	8dd 8b- 8g/	.
*	*Xped	*	*
.	.	8ddJ 8b- 8g/	.
*	*8va	*	*
*	*ped	*	*
2AA: 2EE: 2AAA:/	2aaa 2ggg 2ccc# 2aa\	8r	.
*	*X8va	*	*
.	.	8cc#L 8a 8g/	p
.	.	8cc# 8a 8g/	.
*	*Xped	*	*
.	.	8cc#J 8a 8g/	.
*	*v	*v	*
=41	=41	=41
4D 4AA 4DD/	4dd 4a 4f# 4d/	.
*tremolo	*	*
32EELLL 32AAA/	8.aaL 8.cc# 8.a 8.g\	>
32AA/	.	.
32EE 32AAA/	.	.
32AA/	.	.
32EE 32AAA/	.	.
32AA/	.	.
32EE 32AAA/	16aaJk 16cc# 16a 16g\	]
32AA/JJJ	.	.
4D 4AA 4DD/	4dd 4a 4f#/	.
32EELLL 32AAA/	8.aaL 8.cc# 8.a 8.g\	>
32AA/	.	.
32EE 32AAA/	.	.
32AA/	.	.
32EE 32AAA/	.	.
32AA/	.	.
32EE 32AAA/	16aaJk 16cc# 16a 16g\	]]
32AA/JJJ	.	.
*Xtremolo	*	*
=42	=42	=42
!!LO:TX:a:t=1ma
*>B1	*>B1	*>B1
4D 4AA 4DD/	4dd 4a 4f#/	.
8.DL 8.AA 8.DD/	8.ddL 8.a 8.f# 8.d/	.
16DJk 16AA 16DD/	16ddJk 16a 16f# 16d/	.
8D 8AA 8DD/	8dd 8a 8f# 8d/	.
=43:|!	=43:|!	=43:|!
!!LO:TX:a:t=2da
*>B2	*>B2	*>B2
4D 4AA 4DD/	4dd 4a 4f#/	.
8.DL 8.AA 8.DD/	8.ddL 8.a 8.f# 8.d/	.
16DJk 16AA 16DD/	16ddJk 16a 16f# 16d/	.
4D 4AA 4DD/	4dd 4a 4f# 4d/	.
!LO:TX:t=P:problem:pod koniec linijki kasownik Cn	!LO:TX:t=P:problem:pod koniec linijki kasownik ccn	!
4r	4r	.
!!LO:LB:g=original
=44||	=44||	=44||
!!!key: G
!!!OMD: Trio.
*>C	*>C	*>C
*k[f#]	*k[f#]	*
*	*^	*
4G 4D 4GG/	8.dd/L	8r	.
.	.	8g 8d\	.
.	16b/K	.	.
4D 4GG 4DD/	8.dd/	8r	.
.	.	8g 8d\	.
.	16b/Jk	.	.
4G 4D 4GG/	2g/	8r	.
.	.	8dL 8B\	.
4D 4GG 4DD/	.	8d 8B\	.
.	.	8dJ 8B\	.
=45	=45	=45	=45
*rep	*	*	*
4G 4D 4GG/	8.b/L	8r	.
.	.	8d 8B\	.
.	16g/K	.	.
4D 4GG 4DD/	8.b/	8r	.
.	.	8d 8B\	.
.	16g/Jk	.	.
4G 4D 4GG/	4.d/	8r	.
.	.	8B\L	.
4D 4GG 4DD/	.	8B\	.
.	8e/	8B\J	.
*Xrep	*	*	*
=46	=46	=46	=46
*	*	*tremolo	*
!	!LO:TX:a:i:t=stacc.	!	!
4A 4D 4AA/	8f#/L	8dL 8c\	.
.	8g/	8d 8c\	.
4D 4AA 4DD/	8a/	8d 8c\	.
.	8b/J	8dJ 8c\	.
4A 4D 4AA\	8cc/L	8f#L 8d 8c\	.
.	8dd/	8f# 8d 8c\	.
4D 4AA 4DD/	8.ee/	8f# 8d 8c\	.
.	.	8f#J 8d 8c\	.
.	16dd/Jk	.	.
*	*	*Xtremolo	*
!!LO:LB:g=original
=47	=47	=47	=47
4G 4D 4GG\	(2dd/	8r	.
.	.	8gL 8d 8B\	.
4D 4DD/	.	8g 8d 8B\	.
.	.	8gJ 8d 8B\	.
4G 4D 4GG\	4gg/)	8g\L	.
.	.	8g 8d 8B\	.
4D 4DD/	4r	8g 8d 8B\	.
.	.	8gJ 8d 8B\	.
=48	=48	=48	=48
*	*	*tremolo	*
4G 4D 4GG/	8.dd/L	8gL 8d\	.
.	.	8g 8d\	.
.	16b/K	.	.
4D 4GG 4DD/	8.dd/	8g 8d\	.
.	.	8gJ 8d\	.
.	16b/Jk	.	.
4G 4D 4GG/	2g/	8dL 8B\	.
.	.	8d 8B\	.
4D 4GG 4DD/	.	8d 8B\	.
.	.	8dJ 8B\	.
*	*	*Xtremolo	*
=49	=49	=49	=49
4E 4BB 4EE/	8.b/L	8eL 8B\	.
.	.	8e 8B\	.
.	16g/K	.	.
4G 4E 4GG/	8.b/	8e 8B\	.
.	.	8eJ 8B\	.
.	16g/Jk	.	.
4E 4BB 4EE/	2e/	8BL 8G\	.
.	.	8B 8G\	.
4G 4E 4GG/	.	8B\	.
.	.	8B\J	.
!!LO:LB:g=original
=50	=50	=50	=50
*	*	*tremolo	*
4AA: 4EE: 4AAA:/	8gg:/L	8cc:L 8b-X: 8g:\	.
.	8ee/	8cc 8b- 8g\	.
4r	8gg/	8cc 8b- 8g\	.
.	8ee/J	8ccJ 8b- 8g\	.
*	*	*Xtremolo	*
4AA: 4EE: 4AAA:/	4bb-X:/	8cc:L 8b-: 8g:\	sf
.	.	8ccJ 8b- 8g\	.
4D: 4AA: 4DD:/	4aa:/	8dd:L 8a: 8f#:\	sf
.	.	8ddJ 8a 8f#\	.
=51	=51	=51	=51
4G 4GG/	8aa:L 8ee: 8bn: 8g:\	2ryy	sf
.	8gg 8ee 8b 8g\	.	.
4A 4AA\	8ff#: 8cc#X: 8a: 8g:\	.	sf
.	8eeJ 8cc# 8a 8g\	.	.
8d 8B 8D\	8dd/L	8a 8f#\	.
8r	16dd/L	8r	.
.	16dd/JJ	.	.
4r	8dd/L	4r	.
.	8dd/J	.	.
=52:|!	=52:|!	=52:|!	=52:|!
*>D	*>D	*>D	*>D
*	*	*tremolo	*
!	!LO:TX:b:i:t=Volti	!	!
4c: 4A: 4F#: 4D:\	8ccn:/L	8f#:L 8d:\	.
.	8a/	8f# 8d\	.
4r	8cc/	8f# 8d\	.
.	8a/J	8f#J 8d\	.
*	*	*Xtremolo	*
4c: 4A: 4F#: 4D:\	4ee-X:/	8a:L 8f#:\	<
.	.	8aJ 8f#\	.
4B: 4G:\	4dd:/	8b:L 8g:\	.
.	.	8bJ 8g\	[
!!LO:PB:g=original
=53	=53	=53	=53
*	*	*tremolo	*
4c: 4A: 4F#: 4D:\	8cc:/L	8f#:L 8d:\	.
.	8a/	8f# 8d\	.
4r	8cc/	8f# 8d\	.
.	8a/J	8f#J 8d\	.
*	*	*Xtremolo	*
4c: 4A: 4F#: 4D:\	4ee-X:/	8a:L 8f#:\	<
.	.	8aJ 8f#\	.
4B: 4G:\	4dd:/	8b:L 8g:\	.
.	.	8bJ 8g\	[
*	*v	*v	*
=54	=54	=54
4c: 4A: 4F#: 4D:\	8aa:L 8ff#: 8cc: 8a:\	.
.	8gg 8een\	.
4r	8ff# 8dd\	.
.	8eeJ 8cc\	.
2r	8ddL 8b\	.
.	8cc#X 8an\	.
.	8dd 8b\	.
.	8cc#J 8a\	.
=55	=55	=55
*	*^	*
*	*	*tremolo	*
4D: 4AA: 4DD:/	8ccn:/L	8f#:L 8d:\	.
.	8a/	8f# 8d\	.
4r	8cc/	8f# 8d\	.
.	8a/J	8f#J 8d\	.
*	*	*Xtremolo	*
4D: 4AA: 4DD:/	4ee-X: 4e-X:/	8aL 8f#\	<
.	.	8aJ 8f#\	.
4G: 4D: 4GG:/	4dd: 4d:/	8bL 8g\	.
.	.	8bJ 8g\	[
*	*v	*v	*
!!LO:LB:g=original
=56	=56	=56
4D: 4AA: 4DD:/	8ccc#X:L 8aa: 8ff#: 8cc#X:\	.
.	8bb 8gg\	.
4r	8aa 8ff#\	.
.	8ggJ 8een\	.
2r	8ff#L 8dd\	.
.	8ee 8cc#\	.
.	8dd 8b\	.
.	8cc#XJ 8a#X\	.
=57	=57	=57
*	*^	*
*tremolo	*	*tremolo	*
8BL 8D 8GG\	8.dd/L	8gL 8d\	.
8B 8D 8GG\	.	8g 8d\	.
.	16b/K	.	.
8B 8D 8GG\	8.dd/	8g 8d\	.
8BJ 8D 8GG\	.	8gJ 8d\	.
.	16b/Jk	.	.
8GL 8D 8GG\	2g/	8dL 8B\	.
8G 8D 8GG\	.	8d 8B\	.
8G 8D 8GG\	.	8d 8B\	.
8GJ 8D 8GG\	.	8dJ 8B\	.
*Xtremolo	*	*Xtremolo	*
=58	=58	=58	=58
*^	*	*	*
*	*tremolo	*	*	*
8.B/L	8DL 8GG\	8.b/L	8d\L	.
.	8D 8GG\	.	8d\	.
16G/K	.	16g/K	.	.
8.B/	8D 8GG\	8.b/	8d\	.
.	8DJ 8GG\	.	8d\J	.
16G/Jk	.	16g/Jk	.	.
4.D/	8GG\L	4.d/	8B\L	.
.	8GG\	.	8B\	.
.	8GG\	.	8B\	.
8E/	8GG\J	8e/	8B\J	.
*	*Xtremolo	*	*	*
!!LO:LB:g=original
=59	=59	=59	=59	=59
8F#/L	8DD\L	8f#/L	8dL 8c\	.
8G/	8D\	8g/	8d 8c\	.
8A/	8D\	8a/	8d 8c\	.
8BJ/	8D\J	8b/J	8dJ 8c\	.
*	*tremolo	*	*	*
8c/L	8D\L	8cc/L	8f#L 8d\	.
8d/	8D\	8dd/	8cc 8f#\	.
8.e/	8D\	8.ee/	8cc 8f#\	.
.	8D\J	.	8ccJ 8f#\	.
16d/J	.	16ddJk/	.	.
*v	*v	*	*	*
=60	=60	=60	=60
*	*	*tremolo	*
8dL 8B 8G\	2dd/	8bL 8g\	.
8d 8B 8G\	.	8b 8g\	.
8d 8B 8G\	.	8b 8g\	.
8dJ 8B 8G\	.	8bJ 8g\	.
*Xtremolo	*	*Xtremolo	*
8GL 8D 8GG\	4gg/	8ddL 8b 8g\	.
8B 8G\	.	8b 8g 8d\	.
8B 8G\	4r	8b 8g 8d\	.
8BJ 8G\	.	8bJ 8g 8d\	.
=61	=61	=61	=61
*tremolo	*	*tremolo	*
8BL 8G\	8.dd/L	8gL 8fn\	.
8B 8G\	.	8g 8f\	.
.	16b/K	.	.
8B 8G\	8.dd/	8g 8f\	.
8BJ 8G\	.	8gJ 8f\	.
.	16b/Jk	.	.
8GL 8D 8GG/	2gg/	8bL 8g 8f\	sf
8G 8D 8GG/	.	8b 8g 8f\	.
8G 8D 8GG/	.	8b 8g 8f\	.
8GJ 8D 8GG/	.	8bJ 8g 8f\	.
*	*	*Xtremolo	*
!!LO:LB:g=original
=62	=62	=62	=62
8cL 8G 8C\	8.bb/L	8eeL 8cc 8g\	.
8c 8G 8C\	.	8cc 8g\	.
.	16gg/K	.	.
8c 8G 8C\	8.bb/	8cc 8g\	.
8cJ 8G 8C\	.	8ccJ 8g\	.
.	16gg/Jk	.	.
*	*	*tremolo	*
8CL 8GG 8CC/	2eee/	8ggL 8ee\	sf
8C 8GG 8CC/	.	8gg 8ee\	.
8C 8GG 8CC/	.	8gg 8ee\	.
8CJ 8GG 8CC/	.	8ggJ 8ee\	.
*Xtremolo	*	*Xtremolo	*
=63	=63	=63	=63
4D 4BB 4GG 4DD/	8eee/L	8bbL 8gg 8ee\	ff
.	8ddd/J	8dd\J	.
4d 4B 4G 4D\	4ff#/	8ddL 8b 8f#\	.
.	.	8ggJ 8g\	.
4D 4AA 4DD/	4bb/	8ff#L 8cc 8b\	.
.	.	8aa 8a\	.
4d 4A 4D\	4ee/	8ee 8cc 8a 8e\	.
.	.	8ff#J 8f#\	.
*	*v	*v	*
=64	=64	=64
8GL 8D 8GG\	8ggL 8dd 8b 8g\	p
!	!LO:TX:a:i:t=stacc.	!
8B\	8b\	.
8c\	8cc\	.
8c#X\J	8cc#X\J	.
8d\L	8dd\L	>
8d#X\	8dd#X\	.
8.f#\	8.ff#\	.
16e\Jk	16ee\Jk	]
!!LO:LB:g=original
=65	=65	=65
*	*^	*
8e\L	8ee\L	4ryy	.
8dn\J	8ddn\J	.	.
4D 4AA 4DD/	8eee/L	4ff# 4dd 4cc\	ff
.	8ddd/J	.	.
4d 4A 4D\	8ddd/L	4ff# 4dd 4cc\	.
.	8ccc/	.	.
4D 4AA 4DD/	8aa/	4ff# 4dd 4cc\	.
.	8bb/J	.	.
=66	=66	=66	=66
8G 8D 8GG\	8gg/	8dd 8b 8g\	.
8B\L	8b\L	8ryy	p
8c\	8cc\	4ryy	.
8c#X\J	8cc#X\J	.	.
8d\L	8.dd\L	2ryy	.
8d#X\	.	.	.
.	16dd#X\K	.	.
8.f#\	8.ff#\	.	.
16e\Jk	16ee\Jk	.	.
=67	=67	=67	=67
8d#X\L	8dd#X/L	4ryy	.
8e\J	8ee/J	.	.
4C 4CC/	8.eeeL 8.aa/	4ee\	.
.	16bb/Jk	.	.
4D 4AA 4DD/	8.ddd/L	4ff# 4dd# 4cc\	.
.	16ccc/	.	.
4D 4AA 4DD/	8.aa/	4dd# 4cc 4a\	.
.	16ff#/Jk	.	.
=68	=68	=68	=68
4G 4D 4GG\	4gg/	4dd 4b 4g\	.
4GG 4DD 4BBB 4GGG/	4ggg/	4ggg 4ddd 4bb 4gg\	.
!	!LO:TX:b:i:t=Da Capo \nMarsz	!	!
8G 8D 8GG\	8gg 8dd 8b 8g\	8ryy	.
*	*v	*v	*
==	==	==
*-	*-	*-
!!!system-decoration: {(*)}
!!!RDF**kern: < = below
!!!ENC: Berenika Jozajtis
!!!END: 2023-07-12
!!!ENC: Marta Lawrence
!!!END: 2023-07-20
!!!YEC: Copyright 2022 Narodowy Instytut Fryderyka Chopina (https://polishscores.org)
!!!YEM: License CC-BY-4.0 (https://creativecommons.org/licenses/by/4.0)
